X:176
T:The Old Joker
C:Margaret O'Callaghan?
B:Terry "Cuz" Teahan "Sliabh Luachra on Parade" 1980
Z:Patrick Cavanagh
M:4/4
L:1/8
R:Reel
K:D
| E2EF GFGA | B/c/B eB dBAd | BGE2 GABc | dBeB dBAF | 
EDEF G2GA | B/c/B eB dBAd | BGEF GFGB | dBAF GEE2 | 
| eB B/c/B ecef | gfed edBG | BGEF GABc | dedB AFED | 
E/B/E EF G2GA | B/c/B eB dBAd | BGEF GABc | dBAF GEE2 || 

